X:1
T:Title
%%score ( 1 2 ) ( 3 4 )
L:1/8
Q:1/4=127
M:3/4
K:D
V:1 treble nm="Grand Piano, Staff 1"
V:2 treble 
V:3 bass nm="Choir Pad, Rothwell (Tans�ur), LM"
V:4 bass 
V:1
 D2 F4 | A2 d4 | [DA]2 [EG]2 [DF]2 | [CE]2 D4 | [CE]2 [DF]4 | [E^G]2 [EA]4 | [FA]2 [FB]2 [EA]2 | %7
w: By~William~Tans�ur,~1754 *|||||||
 [D^G]2 [CA]4 | [EA]2 [Dd]4 | [DA]2 [DB]4 | z2 A2 z2 | [DF]2 [DF]2 [CE]2 | [CE]2 [DF]4 | %13
w: ||||||
 [CE]2 D2 E2 | .F2 A4 | [EG]2 [DF]4 | [EA]2 d3 c | [EB]2 A2- [DA]2 | DE [DF]4 | [CE]2 D4- | %20
w: |||||||
 D4 z2 |] %21
w: |
V:2
 x6 | x6 | x6 | x6 | x6 | x6 | x6 | x6 | x6 | x6 | [DA]2 E2- [EG]2 | x6 | x6 | x6 | D-[DG] C2 D2 | %15
 x6 | z2 D4 | z2 F2 z2 | x6 | x6 | x6 |] %21
V:3
 D,2 F,4 | A,2 D4 | [F,D]2 [G,B,]2 A,2 | [A,,G,]2 [D,F,]4 | [A,,A,]2 [D,A,]4 | [D,B,]2 [C,A,]4 | %6
 [F,A,]2 [D,D]2 [E,C]2 | [E,B,]2 [A,,A,]4 | [C,G,]2 [D,F,]4 | [F,A,]2 G,4 | [F,A,]2 [C,A,]4 | %11
 [D,A,]2 [A,,A,]4 | [A,,A,]2 [D,A,]4 | [D,G,]2 F,2 G,2 | [D,A,]2 A,2- [B,,A,]2 | [C,A,]2 [D,A,]4 | %16
 [C,A,]2 B,3 A, | [C,G,]2 [D,F,]4 | F,^G, [A,,A,]4 | [A,,G,]2 [D,F,]4- | [D,F,]4 z2 |] %21
V:4
 x6 | x6 | x6 | x6 | x6 | x6 | x6 | x6 | x6 | x6 | x6 | x6 | x6 | z2 D,4 | z2 A,,2 z2 | x6 | %16
 z2 B,,4 | x6 | B,,2 z2 z2 | x6 | x6 |] %21

